X:1
T:11 - Madonna sua mercè
T:Luca Marenzio (1556 - 1599) 1º Libro di Madrigali a quattro voci (Venetia, 1592)
T:Jacopo Sannazaro
T:11 - Madonna sua mercè
T:© 2018 Ed. Marcos Mato
T:© 2018 Ed. Marcos Mato
T:© 2018 Ed. Marcos Mato
T:© 2018 Ed. Marcos Mato
T:© 2018 Ed. Marcos Mato
C:Luca Marenzio (1556 - 1599)
C:1º Libro di Madrigali a quattro voci (Venetia, 1592)
Z:Jacopo Sannazaro
Z:© 2018 Ed. Marcos Mato
%%score [ 1 2 3 4 ]
L:1/8
M:4/4
K:C
V:1 alto1 nm="Soprano" snm="Sop."
V:2 alto nm="Alto" snm="A."
V:3 tenor transpose=-12 nm="Tenor" snm="T."
V:4 bass nm="Basso" snm="Bajo"
V:1
 A4 | [Ce]2 |[M:4/2] A8 A8 | ^G8 z2 A4 B2 | c3 c c2 d2 =G4 G4 | z2 c2 BAGA B2 c2 BAGA | %6
w: ||Ma- don-|na, sua mer-|cè, pur u- na se- ra|gio- io- sa\_et bell' as- sai, gio- io- sa\_et bell' as-|
 B4 G2 d4 c2 B4 | c3 d e4 z4 A2 GF | G2 A2 D4 z4 G2 FE | F2 G2 A3 B c2 c2 d4 | %10
w: sai m'ap- par- v'in son-|no _ _ et ral- le-|grò'l mio cor, et ral- le-|grò'l mio cor si com' il so-|
 e3 d c2 B2 A4 A2 B2- | Bc d4 B3 c d4 G2 | G8 G8 | A4 G8 F4 | E8 z4 CDEF | G4 GABc d4 DEFG | %16
w: le suol do- po piog- gia dis-|* gom- brar, dis- gom- brar la|ter- ra,|di- cen- do\_à|me, vien, _ _ _|_ vien, _ _ _ _ vien _ _ _|
 A4 A6 ^G2 G3 A | B4 B4 e2 dc d2 B2 | c2 BA B2 G2 e2 dc d2 B2 | e3 e e2 dc B2 A2 B4 | c4 A8 G4- | %21
w: _ co- gli\_a le mie|piag- ge qual- che fio- ret- to,|qual- che fio- ret- to, qual- che fio- ret- to\_et|las- cia gl'an- * * * tri fos-|chi, di- cen-|
 G4 F4 E8 | z4 CDEF G4 GABc | d4 DEFG A4 A4- | A2 ^G2 G3 A B4 B4 | e2 dc d2 B2 z8 | %26
w: * do\_à me|vien, _ _ _ _ vien, _ _ _|_ vien, _ _ _ _ co-|* gli\_a le mie piag- ge|qual- che fio- ret- to,|
 z8 e2 dc d2 B2 | e3 e e2 dc B2 A2 B4 | c6 BA G8 | z8 z4 z2 B2 | e3 e e2 dc B2 c2 c2 BA | %31
w: qual- che fio- ret- to\_et|las- cia gl'an- * * * tri fos-|* * * chi,|et|las- cia gl'an- * * * tri fos- * *|
 ^G2 A4 G2 A8 |] %32
w: * * * chi.|
V:2
 E4 | [F,A]2 |[M:4/2] E8 F8 | E8 z2 E4 G2 | A3 G F2 F2 E4 E4 | z2 G2 GFEF G2 G2 GFEF | %6
w: ||Ma- don-|na, sua mer-|cè, pur u- na se- ra|gio- io- sa\_et bell' as- sai, gio- io- sa\_et bell' as-|
 G2 D2 E2 ^F2 ^G2 A4 G2 | A8 z4 =F2 ED | E2 ^F2 G4 z4 E2 DC | D2 E2 =F3 G A2 E2 G4 | %10
w: sai, m'ap- pa- rve\_in son- * *|no et ral- le-|grò'll mio cor, et ral- le-|grò'l mio cor si com' il so-|
 G3 F A2 G2 ^F4 F4 | G2 D2 G,A,B,C D4 G,3 A, | B,2 E2 D4 E8 | F4 D8 D4 | B,8 z4 A,B,CD | %15
w: le suol do- po piog- gia|dis- gom- brar, _ _ _ _ dis- gom-|brar la ter- ra,|di- cen- do\_a|me, vien, _ _ _|
 E4 DCB,A, G,4 F,G,A,B, | C4 C6 B,2 E3 ^F | G4 G4 G8 | C4 G4 G6 G2 | G3 A E2 ^F2 ^G2 A4 G2 | %20
w: _ vien, _ _ _ _ vien _ _ _|_ co- gli\_a le mie|piag- ge qual-|che fio- ret- to\_et|las- cia gl'an- tri fos- * *|
 A4 =F8 D4- | D4 D4 B,8 | z4 A,B,CD E4 DCB,A, | G,4 F,G,A,B, C4 C4- | C2 B,2 E3 ^F G4 G4 | G8 E8 | %26
w: chi, di- cen-|* do\_a me,|vien, _ _ _ _ vien, _ _ _|_ vien _ _ _ _ co-|* gli\_a le mie piag- ge|qual- che|
 E8 E4 G4 | G3 A E2 ^F2 ^G2 A4 G2 | A6 =G=F E4 z2 G2 | G3 G G2 FE D2 C2 D4 | G,2 G4 ^F2 G6 F2 | %31
w: fio- ret- to\_et|las- cia gl'an- tri fos- * *|* * * chi, et|las- cia gl'an- * * * tri fos-|chi, gl'an- tri fos- *|
 E8 ^C8 |] %32
w: * chi.|
V:3
 ^C4 | [E,F]2 |[M:4/2] ^C8 D8 | B,8 z2 =C4 D2 | F2 C2 A,2 B,2 C4 C2 C2 | %5
w: ||Ma- don-|na, sua mer-|cè, pur u- na se- ra gio-|
 B,A,G,A, B,2 C2 B,A,G,A, B,2 C2 | D3 C B,2 A,2 E8 | E4 C2 B,A, B,2 ^C2 D4 | %8
w: io- sa\_et bell' as- sai, gio- io- sa\_et bell' as- sai m'ap-|par- * * v'in son-|no et ral- le- grò'l mio cor,|
 z4 B,2 A,G, A,2 B,2 =C4 | z4 z2 C2 A,2 C2 B,4 | C3 A, A,2 D2 D4 D4 | B,3 C D4 B,3 C D2 E2 | %12
w: et ral- le- grò'l mio cor|si com' il so-|le suol do- po piog- gia|dis- gom- brar, dis- gom- brar la|
 D2 C4 B,2 C8 | C4 B,8 A,4 | ^G,8 A,B,CD E4 | E,F,=G,A, B,2 G,A, B,CDE F4 | E8 E4 B,3 C | %17
w: ter- * * ra,|di- cen- do\_à|me, vien, _ _ _ _|vien, _ _ _ _ vien _ _ _ _ _ _|co- gli\_a le mie|
 D4 D4 C2 B,A, B,2 G,2 | A,2 G,F, G,2 E,2 C2 B,A, B,2 G,2 | C3 C C2 D2 E8 | A,4 C8 B,4- | %21
w: piag- ge qual- che fio- ret- to,|qual- che fio- ret- to, qual- che fio- ret- to\_et|las- cia gl'an- tri fos-|chi, di- cen-|
 B,4 A,4 ^G,8 | A,B,CD E4 E,F,=G,A, B,2 G,A, | B,CDE F4 E8 | E4 B,3 C D4 D4 | z8 C2 B,A, B,2 G,2 | %26
w: * do\_à me,|vien, _ _ _ _ vien, _ _ _ _ vien _|_ _ _ _ _ co-|gli\_a le mie piag- ghe|qual- che fio- ret- to,|
 A,2 G,F, G,2 E,2 C2 B,A, B,2 G,2 | C3 C C2 D2 E8 | E4 z4 z4 z2 E2 | E3 E E2 DC B,2 C2 B,4 | %30
w: qual- che fio- ret- to, qual- che fio- ret- to\_et|las- cia gl'an- tri fos-|chi, et|las- cia gl'an- * * * tri fos-|
 C4 z2 A,2 E3 E E2 DC | B,2 A,2 B,4 A,8 |] %32
w: chi, et las- cia gl'an- * *|* tri fos- chi.|
V:4
 A,4 | [G,,C]2 |[M:4/2] A,8 D,8 | E,8 z2 A,4 G,2 | F,3 E, F,2 D,2 C,4 C,2 C,2 | %5
w: ||Ma- don-|na, sua mer-|cè, pur u- na se- ra gio-|
 G,F,E,F, G,2 C,2 G,F,E,F, G,2 C,2 | G,6 D,2 E,8 | A,,4 A,2 G,F, G,2 E,2 D,4 | %8
w: io- sa\_et bell' as- sai gio- gio- sa\_et bell' as- sai m'ap-|par- ve\_in son-|no et ral- le- grò'l mio cor,|
 z4 G,2 F,E, F,2 D,2 C,4 | z4 z2 F,2 F,2 A,2 G,4 | C,3 D, F,2 G,2 D,4 D,4 | %11
w: et ral- le- grò'l mio cor|si com' il so-|le suol do- po piog- gia|
 G,3 A, B,4 G,3 A, B,3 C | G,8 C,8 | F,4 G,8 D,4 | E,8 F,G,A,B, C4 | C,D,E,F, G,4 G,,A,,B,,C, D,4 | %16
w: dis- gom- brar, dis- gom- brar la|ter- ra,|di- cen- do\_a|me, vien, _ _ _ _|vien, _ _ _ _ vien _ _ _ _|
 A,,8 E,4 E,3 A, | G,4 G,4 z8 | z16 | z16 | z4 F,8 G,4- | G,4 D,4 E,8 | F,G,A,B, C4 C,D,E,F, G,4 | %23
w: co- gli\_a le mie|piag- ge,|||di- cend'|_ à me,|vien, _ _ _ _ vien, _ _ _ _|
 G,,A,,B,,C, D,4 A,,8 | E,4 E,3 A, G,4 G,4 | C2 B,A, B,2 G,2 A,2 G,F, G,2 E,2 | %26
w: vien _ _ _ _ co-|gli\_a le mie piag- ge|qual- che fio- ret- to, qual- che fio- ret- to,|
 C2 B,A, B,2 G,2 z8 | z8 z4 z2 E,2 | A,3 A, A,2 B,2 C4 C2 C,2 | E,3 E, E,2 F,2 G,4 G,2 G,,2 | %30
w: qual- che fio- ret- to|et|las- cia gl'an- tri fos- chi, et|las- cia gl'an- tri fos- chi, et|
 C,3 C, C,2 D,2 E,8- | E,8 A,,8 |] %32
w: las- cia gl'an- tri fos-|* chi.|

